docs/.gitbook/assets/icon-coins-16@dark.svg

<svg width="32" height="32" viewBox="0 0 16 16" fill="none" xmlns="http://www.w3.org/2000/svg">
<rect x="0" y="0" width="16" height="16" fill="#181c1f"/>
<path fill-rule="evenodd" clip-rule="evenodd" d="M7.34571 3.07185C6.67128 3.4289 6.5 3.79338 6.5 4C6.5 4.41421 6.16421 4.75 5.75 4.75C5.33579 4.75 5 4.41421 5 4C5 2.96398 5.78012 2.20345 6.64388 1.74617C7.5412 1.27112 8.72904 1 10 1C11.271 1 12.4588 1.27112 13.3561 1.74617C14.2199 2.20345 15 2.96398 15 4V7C15 7.58569 14.6731 8.096 14.3465 8.45809C14.0018 8.84017 13.5539 9.17385 13.1 9.41334C12.7336 9.60662 12.2799 9.46633 12.0867 9.09997C11.8934 8.73362 12.0337 8.27995 12.4 8.08666C12.7183 7.91876 13.0203 7.68881 13.2326 7.45341C13.463 7.19803 13.5 7.03703 13.5 7V6.17448C13.1132 6.39672 12.673 6.57485 12.2041 6.70748C11.8056 6.82022 11.3911 6.58851 11.2783 6.18994C11.1656 5.79137 11.3973 5.37686 11.7959 5.26411C12.3923 5.09539 12.8468 4.85653 13.1366 4.60596C13.426 4.35574 13.5 4.14458 13.5 4C13.5 3.79338 13.3287 3.4289 12.6543 3.07185C12.0134 2.73256 11.0763 2.5 10 2.5C8.92375 2.5 7.98659 2.73256 7.34571 3.07185ZM3.34571 8.07185C2.67128 8.42891 2.5 8.79338 2.5 9C2.5 9.20662 2.67128 9.57109 3.34571 9.92815C3.98659 10.2674 4.92375 10.5 6 10.5C7.07625 10.5 8.01341 10.2674 8.65429 9.92815C9.32872 9.57109 9.5 9.20662 9.5 9C9.5 8.79338 9.32872 8.42891 8.65429 8.07185C8.01341 7.73256 7.07625 7.5 6 7.5C4.92375 7.5 3.98659 7.73256 3.34571 8.07185ZM9.5 11.1743C9.45238 11.2018 9.40438 11.2283 9.35612 11.2538C8.4588 11.7289 7.27096 12 6 12C4.72904 12 3.5412 11.7289 2.64388 11.2538C2.59562 11.2283 2.54762 11.2018 2.5 11.1743V12C2.5 12.2066 2.67128 12.5711 3.34571 12.9281C3.98659 13.2674 4.92375 13.5 6 13.5C7.07625 13.5 8.01341 13.2674 8.65429 12.9281C9.32872 12.5711 9.5 12.2066 9.5 12V11.1743ZM1 9V12C1 13.036 1.78012 13.7965 2.64388 14.2538C3.5412 14.7289 4.72904 15 6 15C7.27096 15 8.4588 14.7289 9.35612 14.2538C10.2199 13.7965 11 13.036 11 12V9C11 7.96398 10.2199 7.20345 9.35612 6.74617C8.4588 6.27112 7.27096 6 6 6C4.72904 6 3.5412 6.27112 2.64388 6.74617C1.78012 7.20345 1 7.96398 1 9Z" fill="#fff"/>
</svg>

<svg xmlns="http://www.w3.org/2000/svg" width="32" height="32" fill="none" viewBox="0 0 16 16"><path fill="#181c1f" d="M0 0h16v16H0z"/><path fill="#fff" fill-rule="evenodd" d="M7.346 3.072C6.67 3.429 6.5 3.793 6.5 4A.75.75 0 0 1 5 4c0-1.036.78-1.797 1.644-2.254C7.54 1.271 8.729 1 10 1s2.459.271 3.356.746C14.22 2.203 15 2.964 15 4v3c0 .586-.327 1.096-.653 1.458a4.6 4.6 0 0 1-1.247.955.75.75 0 1 1-.7-1.326c.318-.168.62-.398.833-.634.23-.255.267-.416.267-.453v-.826a5.7 5.7 0 0 1-1.296.533.75.75 0 0 1-.408-1.443c.596-.169 1.05-.407 1.34-.658.29-.25.364-.461.364-.606 0-.207-.171-.571-.846-.928-.64-.34-1.578-.572-2.654-.572s-2.013.233-2.654.572m-4 5C2.67 8.429 2.5 8.793 2.5 9s.171.571.846.928c.64.34 1.578.572 2.654.572s2.013-.233 2.654-.572C9.33 9.571 9.5 9.207 9.5 9s-.171-.571-.846-.928C8.014 7.732 7.076 7.5 6 7.5s-2.013.233-2.654.572M9.5 11.174l-.144.08C8.46 11.729 7.271 12 6 12s-2.459-.271-3.356-.746l-.144-.08V12c0 .207.171.571.846.928.64.34 1.578.572 2.654.572s2.013-.233 2.654-.572c.675-.357.846-.721.846-.928zM1 9v3c0 1.036.78 1.797 1.644 2.254C3.54 14.729 4.729 15 6 15s2.459-.271 3.356-.746C10.22 13.797 11 13.036 11 12V9c0-1.036-.78-1.797-1.644-2.254C8.46 6.271 7.271 6 6 6s-2.459.271-3.356.746C1.78 7.203 1 7.964 1 9" clip-rule="evenodd"/></svg>
